img/nav/feu.svg

<svg xmlns="http://www.w3.org/2000/svg" width="400" height="400"><defs><linearGradient id="a" x1="0%" y1="8%" x2="100%" y2="92%"><stop offset="10%" style="stop-color:#fc420f;stop-opacity:1"/><stop offset="100%" style="stop-color:#f88c0d;stop-opacity:1"/></linearGradient></defs><path style="fill:url(#a)" d="M169.141 16.956c0 46.499-21.455 94.818-69.438 156.385-7.003 8.986-7.271 8.998-7.438.332-.261-13.613-4.305-32.346-9.788-45.335-5.76-13.645-6.05-13.829-7.215-4.553-2.017 16.064-6.51 28.356-22.147 60.59-21.51 44.342-26.11 58.863-27.103 85.547-1.855 49.873 25.114 87.611 89.827 125.697 9.721 5.721 9.608 5.823 5.158-4.677-16.285-38.427-14.145-67.194 7.491-100.708 17.559-27.199 25.468-43.76 30.949-64.808l1.822-6.996 3.722 7.777c6.334 13.233 9.378 32.976 7.042 45.668-1.011 5.491-.607 5.788 2.659 1.953 19.173-22.509 31.379-59.978 30.668-94.141l-.272-13.072 4.688 3.578c64.373 49.145 89.597 147.267 56.952 221.552-4.066 9.253-4.092 9.193 2.372 5.578 83.145-46.497 119.38-117.793 99.619-196.009-10.57-41.839-44.852-98.071-75.172-123.304-5.646-4.698-5.669-4.683-3.223 2.056 8.056 22.194 5.693 47.895-5.693 61.926-3.533 4.354-3.467 4.396-5.618-3.519-12.566-46.239-39.851-90.476-71.581-116.051C195.08 12.474 177.918 2.073 171.094.406l-1.953-.478v17.028"/></svg>

<svg id="svg" xmlns="http://www.w3.org/2000/svg" xmlns:xlink="http://www.w3.org/1999/xlink" width="400" height="400" viewBox="0, 0, 400, 400">
<defs>
<linearGradient id="lgrad" x1="0%" y1="8%" x2="100%" y2="92%">
<stop offset="10%" style="stop-color:rgb(252,66,15);stop-opacity:1.00"/>
<stop offset="100%" style="stop-color:rgb(248,140,13);stop-opacity:1.00"/>
</linearGradient>
</defs>
<path style="fill:url(#lgrad);" d="M169.141 16.956 C 169.141 63.455,147.686 111.774,99.703 173.341 C 92.700 182.327,92.432 182.339,92.265 173.673 C 92.004 160.060,87.960 141.327,82.477 128.338 C 76.717 114.693,76.427 114.509,75.262 123.785 C 73.245 139.849,68.752 152.141,53.115 184.375 C 31.605 228.717,27.005 243.238,26.012 269.922 C 24.157 319.795,51.126 357.533,115.839 395.619 C 125.560 401.340,125.447 401.442,120.997 390.942 C 104.712 352.515,106.852 323.748,128.488 290.234 C 146.047 263.035,153.956 246.474,159.437 225.426 L 161.259 218.430 164.981 226.207 C 171.315 239.440,174.359 259.183,172.023 271.875 C 171.012 277.366,171.416 277.663,174.682 273.828 C 193.855 251.319,206.061 213.850,205.350 179.687 L 205.078 166.615 209.766 170.193 C 274.139 219.338,299.363 317.460,266.718 391.745 C 262.652 400.998,262.626 400.938,269.090 397.323 C 352.235 350.826,388.470 279.530,368.709 201.314 C 358.139 159.475,323.857 103.243,293.537 78.010 C 287.891 73.312,287.868 73.327,290.314 80.066 C 298.370 102.260,296.007 127.961,284.621 141.992 C 281.088 146.346,281.154 146.388,279.003 138.473 C 266.437 92.234,239.152 47.997,207.422 22.422 C 195.080 12.474,177.918 2.073,171.094 0.406 L 169.141 -0.072 169.141 16.956">
</path>
</svg>
